img/favicons/favicon.svg

<?xml version="1.0" encoding="UTF-8" standalone="no" ?>
<!DOCTYPE svg PUBLIC "-//W3C//DTD SVG 1.1//EN" "http://www.w3.org/Graphics/SVG/1.1/DTD/svg11.dtd">
<svg xmlns="http://www.w3.org/2000/svg" xmlns:xlink="http://www.w3.org/1999/xlink" version="1.1" width="32" height="32" viewBox="0 0 32 32" xml:space="preserve">
<desc>Created with Fabric.js 4.6.0</desc>
<defs>
</defs>
<g transform="matrix(0.93 0 0 1.02 5.54 18.54)" id="eQzN3ILY2j2UJtC68sngr"  >
<path style="stroke: rgb(2,99,44); stroke-width: 0.1; stroke-dasharray: none; stroke-linecap: butt; stroke-dashoffset: 0; stroke-linejoin: miter; stroke-miterlimit: 4; fill: rgb(2,99,44); fill-rule: nonzero; opacity: 1;" vector-effect="non-scaling-stroke"  transform=" translate(0, 0)" d="M -0.85636 -7.52809 C -0.8940400000000001 -7.6682 -1.03909 -7.761909999999999 -1.1969400000000001 -7.74811 C -1.3547900000000002 -7.73431 -1.47756 -7.61719 -1.48522 -7.473109999999999 L -2.26648 7.225750000000001 L -2.26648 7.225750000000001 C -2.27739 7.430960000000001 -2.14907 7.621320000000001 -1.94306 7.705540000000001 C -1.73705 7.789760000000001 -1.49537 7.750650000000001 -1.33392 7.606980000000001 L 2.07354 4.574710000000001 L 2.07354 4.574710000000001 C 2.23615 4.430010000000001 2.30272 4.217980000000002 2.24866 4.016990000000002 z" stroke-linecap="round" />
</g>
<g transform="matrix(0.99 0 0 1.12 6.76 9.25)" id="WocYrooU5prEtsfsxXO2D"  >
<path style="stroke: rgb(161,180,54); stroke-width: 0.1; stroke-dasharray: none; stroke-linecap: butt; stroke-dashoffset: 0; stroke-linejoin: miter; stroke-miterlimit: 4; fill: rgb(161,180,54); fill-rule: nonzero; opacity: 1;" vector-effect="non-scaling-stroke"  transform=" translate(0, 0)" d="M -1.8081 -6.61487 C -2.00326 -6.61487 -2.18792 -6.53683 -2.31027 -6.402629999999999 C -2.43262 -6.2684299999999995 -2.4795 -6.092529999999999 -2.43775 -5.924259999999999 L 0.6200300000000003 6.3997 L 0.6200300000000003 6.3997 C 0.6528300000000004 6.5319 0.7901700000000003 6.6231 0.9431700000000003 6.61428 C 1.0961800000000004 6.6054699999999995 1.2189200000000002 6.49928 1.2319700000000002 6.36444 L 2.4512400000000003 -6.2318999999999996 L 2.4512400000000003 -6.2318999999999996 C 2.46077 -6.330369999999999 2.42309 -6.427849999999999 2.34736 -6.500649999999999 C 2.27163 -6.57344 2.16479 -6.614879999999999 2.05282 -6.614879999999999 z" stroke-linecap="round" />
</g>
<g transform="matrix(0.98 0 0 1.12 13.51 12.94)" id="ZVRyx49u9bCjEfJdp4rop"  >
<path style="stroke: rgb(2,99,44); stroke-width: 0.1; stroke-dasharray: none; stroke-linecap: butt; stroke-dashoffset: 0; stroke-linejoin: miter; stroke-miterlimit: 4; fill: rgb(2,99,44); fill-rule: nonzero; opacity: 1;" vector-effect="non-scaling-stroke"  transform=" translate(0, 0)" d="M -3.18341 -7.99657 C -3.3418699999999997 -7.99657 -3.47417 -7.8905400000000006 -3.48846 -7.75208 L -5.08134 7.67898 L -5.08134 7.67898 C -5.09397 7.80129 -5.01781 7.9174 -4.89094 7.96929 C -4.764069999999999 8.02118 -4.613729999999999 7.99769 -4.515079999999999 7.91057 L -1.0708799999999994 4.86894 L -1.0708799999999994 3.53986 L -3.8353699999999993 0.13741000000000003 L -3.8353699999999993 0.13741000000000003 L -3.4576499999999992 -0.55508 L -3.4576499999999992 -0.55508 C -3.402739999999999 -0.65574 -3.2917099999999992 -0.72379 -3.1650799999999992 -0.73437 C -3.038449999999999 -0.74495 -2.9147699999999994 -0.69653 -2.8391799999999994 -0.60677 L -0.6455799999999994 1.9981300000000002 L -0.03809999999999936 -6.70903 L -0.03809999999999936 -6.70903 C -0.020969999999999357 -6.95453 0.21097000000000066 -7.14594 0.49132000000000065 -7.14594 L 1.0628300000000006 -7.14594 L 1.0628300000000006 -7.14594 C 1.0884900000000006 -7.14594 1.1129900000000006 -7.1366000000000005 1.1305000000000005 -7.120150000000001 C 1.1480100000000004 -7.103700000000001 1.1569600000000004 -7.081620000000001 1.1552200000000006 -7.05916 L 0.7898300000000006 -2.36125 L 2.7385900000000007 -4.18292 L 2.7385900000000007 -4.18292 C 2.862190000000001 -4.29846 3.0375200000000007 -4.3603700000000005 3.2179000000000006 -4.35217 C 3.3982700000000006 -4.34396 3.5653700000000006 -4.2664800000000005 3.674680000000001 -4.14034 L 3.926460000000001 -3.8498200000000002 L 0.7898300000000011 -1.0321700000000003 L 0.47085000000000116 3.80568 L 4.245440000000001 0.4032300000000002 L 4.8947600000000016 -5.631589999999999 L 5.079720000000002 -7.3505899999999995 L 5.079720000000002 -7.3505899999999995 C 5.097530000000002 -7.516109999999999 5.034980000000002 -7.680549999999999 4.9074300000000015 -7.803509999999999 C 4.779880000000001 -7.926469999999999 4.599160000000001 -7.99656 4.4096600000000015 -7.99656 z" stroke-linecap="round" />
</g>
<g transform="matrix(0.98 0 0 1.12 23.13 7.67)" id="ZAr7otRj3W-MG0xDSisQq"  >
<path style="stroke: rgb(161,180,54); stroke-width: 0.1; stroke-dasharray: none; stroke-linecap: butt; stroke-dashoffset: 0; stroke-linejoin: miter; stroke-miterlimit: 4; fill: rgb(161,180,54); fill-rule: nonzero; opacity: 1;" vector-effect="non-scaling-stroke"  transform=" translate(0, 0)" d="M -3.36282 -3.1699 C -3.3515200000000003 -3.26289 -3.2637300000000002 -3.3343000000000003 -3.15719 -3.33717 L 3.75887 -3.5231 L 3.75887 -3.5231 C 3.90754 -3.5271 4.04377 -3.45066 4.10199 -3.33058 C 4.16021 -3.2104999999999997 4.12849 -3.07138 4.0221 -2.98019 L -3.4481400000000004 3.4228799999999997 L -3.4481400000000004 3.4228799999999997 C -3.5693600000000005 3.5267799999999996 -3.7518500000000006 3.5527999999999995 -3.9043300000000003 3.48791 C -4.0568100000000005 3.4230199999999997 -4.1465000000000005 3.28119 -4.12854 3.13334 z" stroke-linecap="round" />
</g>
<g transform="matrix(0.95 0 0 1.09 23.46 11.49)" id="d4gHXwdIkjYZdVxjd74Nk"  >
<path style="stroke: rgb(40,178,73); stroke-width: 0.1; stroke-dasharray: none; stroke-linecap: butt; stroke-dashoffset: 0; stroke-linejoin: miter; stroke-miterlimit: 4; fill: rgb(40,178,73); fill-rule: nonzero; opacity: 1;" vector-effect="non-scaling-stroke"  transform=" translate(0, 0)" d="M -2.20652 0.53568 L 4.7869399999999995 -5.57128 L 4.7869399999999995 -5.57128 C 4.880249999999999 -5.65276 5.02028 -5.6769799999999995 5.141859999999999 -5.63265 C 5.26343 -5.5883199999999995 5.3426599999999995 -5.48417 5.3426599999999995 -5.36866 L 5.3426599999999995 4.99774 L 5.3426599999999995 4.99774 C 5.3426599999999995 5.19892 5.23757 5.389 5.05749 5.51355 C 4.877409999999999 5.6381000000000006 4.6422 5.68337 4.41923 5.6364 L -5.08588 3.63421 L -5.08588 3.63421 C -5.20331 3.60947 -5.29647 3.5312 -5.32971 3.42934 C -5.3629500000000005 3.32748 -5.33112 3.21781 -5.2464 3.1422999999999996 L -3.21661 1.3331399999999995 L 2.62115 2.6022199999999995 L 2.62115 2.6022199999999995 C 2.78565 2.6379799999999993 2.95765 2.5765299999999995 3.0468800000000003 2.4501199999999996 L 3.317 2.0674399999999995 L 3.317 2.0674399999999995 C 3.3676700000000004 1.9956499999999995 3.3760600000000003 1.9069099999999994 3.33955 1.8287899999999995 C 3.30304 1.7506599999999994 3.22606 1.6926299999999994 3.13253 1.6727099999999995 z" stroke-linecap="round" />
</g>
<g transform="matrix(0.98 0 0 1.12 19.44 22.78)" id="6TpQFsocQ8Ie68YgAIteA"  >
<path style="stroke: rgb(40,178,73); stroke-width: 0.1; stroke-dasharray: none; stroke-linecap: butt; stroke-dashoffset: 0; stroke-linejoin: miter; stroke-miterlimit: 4; fill: rgb(40,178,73); fill-rule: nonzero; opacity: 1;" vector-effect="non-scaling-stroke"  transform=" translate(0, 0)" d="M -5.39947 -2.8068 L -2.74384 -5.3149 L -2.74384 -5.3149 C -2.61136 -5.44002 -2.41114 -5.491 -2.2229 -5.44755 L 8.848009999999999 -2.8920399999999997 L 8.848009999999999 -2.8920399999999997 C 9.065589999999998 -2.84182 9.217249999999998 -2.6692299999999998 9.217249999999998 -2.47184 L 9.217249999999998 4.70862 L 9.217249999999998 4.70862 C 9.217249999999998 4.9441 9.091879999999998 5.1660699999999995 8.878309999999999 5.3087 C 8.664739999999998 5.45133 8.3875 5.49827 8.12877 5.43558 L -8.867329999999999 1.31752 L -8.867329999999999 1.31752 C -9.03056 1.27797 -9.157639999999999 1.16544 -9.201189999999999 1.02187 C -9.244749999999998 0.8783000000000001 -9.198249999999998 0.7252400000000001 -9.07903 0.6197300000000001 L -6.3485499999999995 -1.79671 L 5.919650000000001 0.6478700000000002 L 5.919650000000001 0.6478700000000002 C 5.92245 0.6484300000000002 5.925350000000001 0.6474200000000002 5.926950000000001 0.6453300000000002 L 6.23636 0.24072000000000016 L 6.23636 0.24072000000000016 C 6.32101 0.13002000000000014 6.33713 -0.010429999999999828 6.27934 -0.13370999999999983 C 6.221550000000001 -0.25698999999999983 6.097460000000001 -0.3468499999999998 5.948530000000001 -0.3732699999999998 L 2.256030000000001 -1.0282699999999998 L 4.346190000000001 -2.14572 L 4.346190000000001 -2.14572 C 4.377060000000001 -2.16222 4.396110000000001 -2.19148 4.3966400000000005 -2.2231899999999998 C 4.397170000000001 -2.2548999999999997 4.3791 -2.28463 4.34879 -2.30192 L 3.77945 -2.62667 L 3.77945 -2.62667 C 3.5847700000000002 -2.73772 3.33651 -2.7466299999999997 3.13213 -2.64992 L 0.7674600000000003 -1.5308899999999999 z" stroke-linecap="round" />
</g>
<g transform="matrix(0.98 0 0 1.12 13.52 27.57)" id="lHn3FVK4R--3rfbqkzR-q"  >
<path style="stroke: rgb(161,180,54); stroke-width: 0.1; stroke-dasharray: none; stroke-linecap: butt; stroke-dashoffset: 0; stroke-linejoin: miter; stroke-miterlimit: 4; fill: rgb(161,180,54); fill-rule: nonzero; opacity: 1;" vector-effect="non-scaling-stroke"  transform=" translate(0, 0)" d="M -8.93161 2.22781 C -9.10906 2.2312399999999997 -9.27099 2.1394699999999998 -9.34038 1.9961399999999998 C -9.40977 1.8528099999999998 -9.37262 1.6868499999999997 -9.24659 1.5771899999999999 L -4.991859999999999 -2.1249700000000002 L -4.991859999999999 -2.1249700000000002 C -4.888759999999999 -2.2146800000000004 -4.738749999999999 -2.2490300000000003 -4.5988299999999995 -2.21496 L 9.04508 1.10705 L 9.04508 1.10705 C 9.26023 1.1594300000000002 9.39911 1.3422500000000002 9.371410000000001 1.53662 C 9.343720000000001 1.731 9.157820000000001 1.8782 8.934600000000001 1.8825100000000001 z" stroke-linecap="round" />
</g>
</svg>

<svg xmlns="http://www.w3.org/2000/svg" width="32" height="32" xml:space="preserve"><path style="stroke:#02632c;stroke-width:.1;stroke-dasharray:none;stroke-linecap:butt;stroke-dashoffset:0;stroke-linejoin:miter;stroke-miterlimit:4;fill:#02632c;fill-rule:nonzero;opacity:1" vector-effect="non-scaling-stroke" transform="matrix(1.03 0 0 1.13 4.42 18.86)" d="M-.856-7.528c-.038-.14-.183-.234-.34-.22-.159.014-.282.13-.29.275l-.78 14.699a.497.497 0 0 0 .323.48.59.59 0 0 0 .61-.099l3.407-3.032a.551.551 0 0 0 .175-.558z" stroke-linecap="round"/><path style="stroke:#a1b436;stroke-width:.1;stroke-dasharray:none;stroke-linecap:butt;stroke-dashoffset:0;stroke-linejoin:miter;stroke-miterlimit:4;fill:#a1b436;fill-rule:nonzero;opacity:1" vector-effect="non-scaling-stroke" transform="matrix(1.09 0 0 1.24 5.76 8.57)" d="M-1.808-6.615a.68.68 0 0 0-.502.212.52.52 0 0 0-.128.479L.62 6.4c.033.132.17.223.323.214.153-.009.276-.115.289-.25l1.22-12.596a.328.328 0 0 0-.105-.269.426.426 0 0 0-.294-.114z" stroke-linecap="round"/><path style="stroke:#02632c;stroke-width:.1;stroke-dasharray:none;stroke-linecap:butt;stroke-dashoffset:0;stroke-linejoin:miter;stroke-miterlimit:4;fill:#02632c;fill-rule:nonzero;opacity:1" vector-effect="non-scaling-stroke" transform="matrix(1.09 0 0 1.24 13.24 12.65)" d="M-3.183-7.997c-.159 0-.291.106-.305.245L-5.081 7.679c-.013.122.063.238.19.29a.367.367 0 0 0 .376-.058l3.444-3.042v-1.33L-3.835.138l.377-.692a.365.365 0 0 1 .293-.18c.127-.01.25.038.326.128l2.193 2.605.608-8.707c.017-.246.249-.437.53-.437h.57a.1.1 0 0 1 .069.026.076.076 0 0 1 .024.06L.79-2.36l1.949-1.822a.66.66 0 0 1 .479-.17c.18.009.347.087.457.213l.251.29L.79-1.032.47 3.806 4.246.403l.65-6.035.185-1.719a.547.547 0 0 0-.173-.453.719.719 0 0 0-.497-.193z" stroke-linecap="round"/><path style="stroke:#a1b436;stroke-width:.1;stroke-dasharray:none;stroke-linecap:butt;stroke-dashoffset:0;stroke-linejoin:miter;stroke-miterlimit:4;fill:#a1b436;fill-rule:nonzero;opacity:1" vector-effect="non-scaling-stroke" transform="matrix(1.09 0 0 1.24 23.89 6.82)" d="M-3.363-3.17c.011-.093.1-.164.206-.167l6.916-.186a.367.367 0 0 1 .343.192.29.29 0 0 1-.08.35l-7.47 6.404a.445.445 0 0 1-.456.065c-.153-.065-.243-.207-.225-.355z" stroke-linecap="round"/><path style="stroke:#28b249;stroke-width:.1;stroke-dasharray:none;stroke-linecap:butt;stroke-dashoffset:0;stroke-linejoin:miter;stroke-miterlimit:4;fill:#28b249;fill-rule:nonzero;opacity:1" vector-effect="non-scaling-stroke" transform="matrix(1.06 0 0 1.2 24.26 11.05)" d="m-2.207.536 6.994-6.107a.36.36 0 0 1 .355-.062c.121.045.2.149.2.264V4.998a.631.631 0 0 1-.285.516.83.83 0 0 1-.638.122l-9.505-2.002a.32.32 0 0 1-.244-.205.27.27 0 0 1 .084-.287l2.03-1.809 5.837 1.27a.416.416 0 0 0 .426-.153l.27-.383c.05-.071.06-.16.023-.238a.292.292 0 0 0-.207-.156z" stroke-linecap="round"/><path style="stroke:#28b249;stroke-width:.1;stroke-dasharray:none;stroke-linecap:butt;stroke-dashoffset:0;stroke-linejoin:miter;stroke-miterlimit:4;fill:#28b249;fill-rule:nonzero;opacity:1" vector-effect="non-scaling-stroke" transform="matrix(1.09 0 0 1.24 19.81 23.55)" d="m-5.4-2.807 2.656-2.508a.577.577 0 0 1 .521-.133L8.848-2.892c.218.05.37.223.37.42v7.18a.727.727 0 0 1-.34.6.957.957 0 0 1-.75.128L-8.866 1.318a.45.45 0 0 1-.334-.296A.384.384 0 0 1-9.08.62l2.73-2.417L5.92.648c.002 0 .005 0 .007-.003l.31-.404c.084-.111.1-.251.042-.375a.446.446 0 0 0-.33-.24l-3.693-.654 2.09-1.118a.09.09 0 0 0 .05-.077.09.09 0 0 0-.047-.079l-.57-.325a.711.711 0 0 0-.647-.023L.767-1.53z" stroke-linecap="round"/><path style="stroke:#a1b436;stroke-width:.1;stroke-dasharray:none;stroke-linecap:butt;stroke-dashoffset:0;stroke-linejoin:miter;stroke-miterlimit:4;fill:#a1b436;fill-rule:nonzero;opacity:1" vector-effect="non-scaling-stroke" transform="matrix(1.09 0 0 1.24 13.25 28.86)" d="M-8.932 2.228a.44.44 0 0 1-.408-.232.347.347 0 0 1 .093-.419l4.255-3.702a.445.445 0 0 1 .393-.09L9.045 1.107c.215.052.354.235.326.43-.027.194-.213.341-.436.346z" stroke-linecap="round"/></svg>
